public/images/bannercardBg.svg

<svg width="387" height="149" viewBox="0 0 387 149" fill="none" xmlns="http://www.w3.org/2000/svg">
<path d="M0 6C0 2.6863 2.68629 0 6 0H380.747C384.061 0 386.747 2.68629 386.747 6V143C386.747 146.314 384.061 149 380.747 149H6C2.68629 149 0 146.314 0 143V6Z" fill="url(#paint0_linear_60_2353)"/>
<mask id="path-2-inside-1_60_2353" fill="white">
<path d="M156.325 8.97491H360.856C370.165 8.97491 377.711 16.5212 377.711 25.8299V134.638H156.325V8.97491Z"/>
</mask>
<path d="M156.325 8.13216H360.856C370.63 8.13216 378.553 16.0557 378.553 25.8299L376.868 25.8299C376.868 16.9866 369.699 9.81767 360.856 9.81767H156.325V8.13216ZM377.711 134.638H156.325H377.711ZM156.325 134.638V8.97491V134.638ZM360.856 8.13216C370.63 8.13216 378.553 16.0557 378.553 25.8299V134.638H376.868V25.8299C376.868 16.9866 369.699 9.81767 360.856 9.81767L360.856 8.13216Z" fill="url(#paint1_linear_60_2353)" mask="url(#path-2-inside-1_60_2353)"/>
<path opacity="0.5" d="M85.8879 11.3886C86.1726 10.5763 87.3213 10.5763 87.606 11.3886V11.3886C87.631 11.46 87.6649 11.528 87.7067 11.5911L87.8655 11.8302C88.3353 12.5378 87.7388 13.4659 86.9001 13.3325V13.3325C86.7987 13.3164 86.6953 13.3164 86.5939 13.3325V13.3325C85.7551 13.4659 85.1587 12.5378 85.6284 11.8302L85.7872 11.5911C85.8291 11.528 85.8629 11.46 85.8879 11.3886V11.3886Z" fill="white"/>
<path opacity="0.3" d="M117.514 21.3261C117.799 20.5138 118.947 20.5138 119.232 21.3261V21.3261C119.257 21.3975 119.291 21.4655 119.333 21.5286L119.492 21.7677C119.961 22.4753 119.365 23.4034 118.526 23.27V23.27C118.425 23.2539 118.321 23.2539 118.22 23.27V23.27C117.381 23.4034 116.785 22.4753 117.254 21.7677L117.413 21.5286C117.455 21.4655 117.489 21.3975 117.514 21.3261V21.3261Z" fill="white"/>
<path opacity="0.2" d="M140.105 14.0995C140.39 13.2872 141.538 13.2872 141.823 14.0995V14.0995C141.848 14.1709 141.882 14.2389 141.924 14.3019L142.082 14.5411C142.552 15.2486 141.956 16.1768 141.117 16.0434V16.0434C141.016 16.0273 140.912 16.0273 140.811 16.0434V16.0434C139.972 16.1768 139.376 15.2486 139.845 14.5411L140.004 14.3019C140.046 14.2389 140.08 14.1709 140.105 14.0995V14.0995Z" fill="white"/>
<path opacity="0.1" d="M117.514 70.123C117.799 69.3107 118.947 69.3107 119.232 70.123V70.123C119.257 70.1944 119.291 70.2624 119.333 70.3254L119.492 70.5646C119.961 71.2721 119.365 72.2003 118.526 72.0669V72.0669C118.425 72.0508 118.321 72.0508 118.22 72.0669V72.0669C117.381 72.2003 116.785 71.2721 117.254 70.5646L117.413 70.3254C117.455 70.2624 117.489 70.1944 117.514 70.123V70.123Z" fill="white"/>
<path opacity="0.2" d="M75.0442 134.279C75.3289 133.467 76.4776 133.467 76.7623 134.279V134.279C76.7873 134.351 76.8211 134.419 76.863 134.482L77.0218 134.721C77.4915 135.428 76.8951 136.357 76.0563 136.223V136.223C75.9549 136.207 75.8515 136.207 75.7501 136.223V136.223C74.9114 136.357 74.3149 135.428 74.7847 134.721L74.9435 134.482C74.9853 134.419 75.0192 134.351 75.0442 134.279V134.279Z" fill="white"/>
<path opacity="0.5" d="M42.5149 127.955C42.7996 127.143 43.9483 127.143 44.233 127.955V127.955C44.258 128.026 44.2918 128.094 44.3337 128.157L44.4925 128.396C44.9622 129.104 44.3658 130.032 43.527 129.899V129.899C43.4256 129.883 43.3223 129.883 43.2208 129.899V129.899C42.3821 130.032 41.7856 129.104 42.2554 128.396L42.4142 128.157C42.456 128.094 42.4899 128.026 42.5149 127.955V127.955Z" fill="white"/>
<path opacity="0.2" d="M19.924 47.5332C20.2087 46.7209 21.3574 46.7209 21.6421 47.5332V47.5332C21.6671 47.6046 21.7009 47.6726 21.7428 47.7356L21.9016 47.9748C22.3713 48.6823 21.7749 49.6105 20.9362 49.4771V49.4771C20.8347 49.461 20.7314 49.461 20.6299 49.4771V49.4771C19.7912 49.6105 19.1947 48.6823 19.6645 47.9748L19.8233 47.7356C19.8652 47.6726 19.899 47.6046 19.924 47.5332V47.5332Z" fill="white"/>
<path d="M50.6467 23.1347C50.9314 22.3224 52.0801 22.3224 52.3648 23.1347V23.1347C52.3898 23.2061 52.4237 23.2741 52.4655 23.3371L52.6243 23.5763C53.0941 24.2838 52.4976 25.212 51.6589 25.0786V25.0786C51.5574 25.0625 51.4541 25.0625 51.3526 25.0786V25.0786C50.5139 25.212 49.9175 24.2838 50.3872 23.5763L50.546 23.3371C50.5879 23.2741 50.6217 23.2061 50.6467 23.1347V23.1347Z" fill="#6586BA"/>
<defs>
<linearGradient id="paint0_linear_60_2353" x1="22.1386" y1="10.7567" x2="297.528" y2="159.605" gradientUnits="userSpaceOnUse">
<stop stop-color="#1654B0"/>
<stop offset="0.52224" stop-color="#0A295A" stop-opacity="0.628674"/>
<stop offset="0.86416" stop-color="#08142E" stop-opacity="0"/>
</linearGradient>
<linearGradient id="paint1_linear_60_2353" x1="146.047" y1="103.575" x2="361.804" y2="12.584" gradientUnits="userSpaceOnUse">
<stop stop-color="#0352CA" stop-opacity="0"/>
<stop offset="1" stop-color="#012964"/>
</linearGradient>
</defs>
</svg>

<svg xmlns="http://www.w3.org/2000/svg" width="387" height="149" fill="none"><path fill="url(#a)" d="M0 6a6 6 0 0 1 6-6h374.747a6 6 0 0 1 6 6v137a6 6 0 0 1-6 6H6a6 6 0 0 1-6-6z"/><mask id="c" fill="#fff"><path d="M156.325 8.975h204.531c9.309 0 16.855 7.546 16.855 16.855v108.808H156.325z"/></mask><path fill="url(#b)" d="M156.325 8.132h204.531c9.774 0 17.697 7.924 17.697 17.698h-1.685c0-8.843-7.169-16.012-16.012-16.012H156.325zm221.386 126.506H156.325zm-221.386 0V8.975zM360.856 8.132c9.774 0 17.697 7.924 17.697 17.698v108.808h-1.685V25.83c0-8.843-7.169-16.012-16.012-16.012z" mask="url(#c)"/><path fill="#fff" d="M85.888 11.389c.285-.813 1.433-.813 1.718 0q.038.107.1.202l.16.24c.47.707-.127 1.635-.966 1.502a1 1 0 0 0-.306 0c-.839.133-1.435-.795-.966-1.503l.16-.239a1 1 0 0 0 .1-.202" opacity=".5"/><path fill="#fff" d="M117.514 21.326c.285-.812 1.433-.812 1.718 0q.038.108.101.203l.159.239c.469.707-.127 1.635-.966 1.502a1 1 0 0 0-.306 0c-.839.133-1.435-.795-.966-1.502l.159-.24a1 1 0 0 0 .101-.202" opacity=".3"/><path fill="#fff" d="M140.105 14.1c.285-.813 1.433-.813 1.718 0q.038.106.101.202l.158.24c.47.707-.126 1.635-.965 1.501a1 1 0 0 0-.306 0c-.839.134-1.435-.794-.966-1.502l.159-.24a1 1 0 0 0 .101-.201" opacity=".2"/><path fill="#fff" d="M117.514 70.123c.285-.812 1.433-.812 1.718 0q.038.108.101.202l.159.24c.469.707-.127 1.635-.966 1.502a1 1 0 0 0-.306 0c-.839.133-1.435-.795-.966-1.502l.159-.24a1 1 0 0 0 .101-.202" opacity=".1"/><path fill="#fff" d="M75.044 134.279c.285-.812 1.434-.812 1.718 0q.039.108.101.203l.159.239c.47.707-.127 1.636-.966 1.502a1 1 0 0 0-.306 0c-.839.134-1.435-.795-.965-1.502l.159-.239a1 1 0 0 0 .1-.203" opacity=".2"/><path fill="#fff" d="M42.515 127.955c.285-.812 1.433-.812 1.718 0a1 1 0 0 0 .1.202l.16.239c.47.708-.127 1.636-.966 1.503a1 1 0 0 0-.306 0c-.839.133-1.435-.795-.966-1.503l.16-.239a1 1 0 0 0 .1-.202" opacity=".5"/><path fill="#fff" d="M19.924 47.533c.285-.812 1.433-.812 1.718 0q.038.108.1.203l.16.239c.47.707-.127 1.636-.966 1.502a1 1 0 0 0-.306 0c-.839.134-1.435-.795-.965-1.502l.158-.24a1 1 0 0 0 .101-.202" opacity=".2"/><path fill="#6586BA" d="M50.647 23.135c.284-.813 1.433-.813 1.718 0a1 1 0 0 0 .1.202l.16.24c.47.707-.127 1.635-.966 1.502a1 1 0 0 0-.306 0c-.84.133-1.436-.795-.966-1.503l.159-.239a1 1 0 0 0 .1-.202"/><defs><linearGradient id="a" x1="22.139" x2="297.528" y1="10.757" y2="159.605" gradientUnits="userSpaceOnUse"><stop stop-color="#1654B0"/><stop offset=".522" stop-color="#0A295A" stop-opacity=".629"/><stop offset=".864" stop-color="#08142E" stop-opacity="0"/></linearGradient><linearGradient id="b" x1="146.047" x2="361.804" y1="103.575" y2="12.584" gradientUnits="userSpaceOnUse"><stop stop-color="#0352CA" stop-opacity="0"/><stop offset="1" stop-color="#012964"/></linearGradient></defs></svg>
